flaticon/real-estate/appartment.svg

<svg xmlns="http://www.w3.org/2000/svg" width="32" height="32" viewBox="0 0 24 24">
    <path d="M4 21.601562L8 21.601562C8.238281 21.601562 8.398438 21.441406 8.398438 21.199219L8.398438 18.800781C8.398438 18.558594 8.238281 18.398438 8 18.398438L4 18.398438C3.761719 18.398438 3.601562 18.558594 3.601562 18.800781L3.601562 21.199219C3.601562 21.441406 3.761719 21.601562 4 21.601562zM4.398438 19.199219L7.601562 19.199219 7.601562 20.800781 4.398438 20.800781zM16 21.601562L20 21.601562C20.238281 21.601562 20.398438 21.441406 20.398438 21.199219L20.398438 18.800781C20.398438 18.558594 20.238281 18.398438 20 18.398438L16 18.398438C15.761719 18.398438 15.601562 18.558594 15.601562 18.800781L15.601562 21.199219C15.601562 21.441406 15.761719 21.601562 16 21.601562zM16.398438 19.199219L19.601562 19.199219 19.601562 20.800781 16.398438 20.800781zM4 12L8 12C8.238281 12 8.398438 11.839844 8.398438 11.601562L8.398438 9.199219C8.398438 8.960938 8.238281 8.800781 8 8.800781L4 8.800781C3.761719 8.800781 3.601562 8.960938 3.601562 9.199219L3.601562 11.601562C3.601562 11.839844 3.761719 12 4 12zM4.398438 9.601562L7.601562 9.601562 7.601562 11.199219 4.398438 11.199219zM10 12L14 12C14.238281 12 14.398438 11.839844 14.398438 11.601562L14.398438 9.199219C14.398438 8.960938 14.238281 8.800781 14 8.800781L10 8.800781C9.761719 8.800781 9.601562 8.960938 9.601562 9.199219L9.601562 11.601562C9.601562 11.839844 9.761719 12 10 12zM10.398438 9.601562L13.601562 9.601562 13.601562 11.199219 10.398438 11.199219zM16 12L20 12C20.238281 12 20.398438 11.839844 20.398438 11.601562L20.398438 9.199219C20.398438 8.960938 20.238281 8.800781 20 8.800781L16 8.800781C15.761719 8.800781 15.601562 8.960938 15.601562 9.199219L15.601562 11.601562C15.601562 11.839844 15.761719 12 16 12zM16.398438 9.601562L19.601562 9.601562 19.601562 11.199219 16.398438 11.199219zM16.398438 9.601562"/>
    <path d="M 22.398438 13.140625 L 22.398438 8 L 23.601562 8 C 23.71875 8 23.839844 7.921875 23.921875 7.800781 C 24 7.71875 24 7.558594 23.960938 7.441406 L 22.359375 3.441406 C 22.320312 3.28125 22.160156 3.199219 22 3.199219 L 21.601562 3.199219 L 21.601562 1.640625 C 21.601562 0.761719 20.839844 0 19.960938 0 L 4.039062 0 C 3.160156 0 2.398438 0.761719 2.398438 1.640625 L 2.398438 3.199219 L 2 3.199219 C 1.839844 3.199219 1.679688 3.28125 1.640625 3.480469 L 0.0390625 7.480469 C 0 7.601562 0 7.761719 0.078125 7.839844 C 0.160156 7.921875 0.28125 8 0.398438 8 L 1.601562 8 L 1.601562 13.179688 L 0.0390625 17.078125 C 0 17.199219 0 17.359375 0.078125 17.441406 C 0.160156 17.519531 0.28125 17.601562 0.398438 17.601562 L 1.601562 17.601562 L 1.601562 23.601562 C 1.601562 23.839844 1.761719 24 2 24 L 22 24 C 22.238281 24 22.398438 23.839844 22.398438 23.601562 L 22.398438 17.601562 L 23.601562 17.601562 C 23.71875 17.601562 23.839844 17.519531 23.921875 17.398438 C 24 17.320312 24 17.160156 23.960938 17.039062 Z M 18.800781 0.800781 L 18.800781 1.601562 L 17.199219 1.601562 L 17.199219 0.800781 Z M 14.800781 0.800781 L 14.800781 1.601562 L 13.199219 1.601562 L 13.199219 0.800781 Z M 10.800781 0.800781 L 10.800781 1.601562 L 9.199219 1.601562 L 9.199219 0.800781 Z M 6.800781 0.800781 L 6.800781 1.601562 L 5.199219 1.601562 L 5.199219 0.800781 Z M 3.199219 1.640625 C 3.199219 1.199219 3.601562 0.800781 4.039062 0.800781 L 4.398438 0.800781 L 4.398438 2 C 4.398438 2.238281 4.558594 2.398438 4.800781 2.398438 L 7.199219 2.398438 C 7.441406 2.398438 7.601562 2.238281 7.601562 2 L 7.601562 0.800781 L 8.398438 0.800781 L 8.398438 2 C 8.398438 2.238281 8.558594 2.398438 8.800781 2.398438 L 11.199219 2.398438 C 11.441406 2.398438 11.601562 2.238281 11.601562 2 L 11.601562 0.800781 L 12.398438 0.800781 L 12.398438 2 C 12.398438 2.238281 12.558594 2.398438 12.800781 2.398438 L 15.199219 2.398438 C 15.441406 2.398438 15.601562 2.238281 15.601562 2 L 15.601562 0.800781 L 16.398438 0.800781 L 16.398438 2 C 16.398438 2.238281 16.558594 2.398438 16.800781 2.398438 L 19.199219 2.398438 C 19.441406 2.398438 19.601562 2.238281 19.601562 2 L 19.601562 0.800781 L 19.960938 0.800781 C 20.398438 0.800781 20.800781 1.199219 20.800781 1.640625 L 20.800781 3.199219 L 3.199219 3.199219 Z M 21.121094 4 C 20.960938 4.480469 20.519531 4.800781 20 4.800781 C 19.480469 4.800781 19.039062 4.480469 18.878906 4 Z M 17.921875 4 C 17.761719 4.480469 17.320312 4.800781 16.800781 4.800781 C 16.28125 4.800781 15.839844 4.480469 15.679688 4 Z M 14.71875 4 C 14.558594 4.480469 14.121094 4.800781 13.601562 4.800781 C 13.078125 4.800781 12.640625 4.480469 12.480469 4 Z M 11.519531 4 C 11.359375 4.480469 10.921875 4.800781 10.398438 4.800781 C 9.878906 4.800781 9.441406 4.480469 9.28125 4 Z M 8.320312 4 C 8.160156 4.480469 7.71875 4.800781 7.199219 4.800781 C 6.679688 4.800781 6.238281 4.480469 6.078125 4 Z M 5.121094 4 C 4.960938 4.480469 4.519531 4.800781 4 4.800781 C 3.480469 4.800781 3.039062 4.480469 2.878906 4 Z M 2.140625 4.347656 C 2.433594 5.089844 3.144531 5.601562 4 5.601562 C 4.640625 5.601562 5.238281 5.28125 5.601562 4.800781 C 5.960938 5.28125 6.558594 5.601562 7.199219 5.601562 C 7.839844 5.601562 8.441406 5.28125 8.800781 4.800781 C 9.160156 5.28125 9.761719 5.601562 10.398438 5.601562 C 11.039062 5.601562 11.640625 5.28125 12 4.800781 C 12.359375 5.28125 12.960938 5.601562 13.601562 5.601562 C 14.238281 5.601562 14.839844 5.28125 15.199219 4.800781 C 15.558594 5.28125 16.160156 5.601562 16.800781 5.601562 C 17.441406 5.601562 18.039062 5.28125 18.398438 4.800781 C 18.761719 5.28125 19.359375 5.601562 20 5.601562 C 20.855469 5.601562 21.566406 5.089844 21.859375 4.347656 L 23 7.199219 L 1 7.199219 Z M 21.601562 8 L 21.601562 12.800781 L 2.398438 12.800781 L 2.398438 8 Z M 21.121094 13.601562 C 20.960938 14.078125 20.519531 14.398438 20 14.398438 C 19.480469 14.398438 19.039062 14.078125 18.878906 13.601562 Z M 17.921875 13.601562 C 17.761719 14.078125 17.320312 14.398438 16.800781 14.398438 C 16.28125 14.398438 15.839844 14.078125 15.679688 13.601562 Z M 14.71875 13.601562 C 14.558594 14.078125 14.121094 14.398438 13.601562 14.398438 C 13.078125 14.398438 12.640625 14.078125 12.480469 13.601562 Z M 11.519531 13.601562 C 11.359375 14.078125 10.921875 14.398438 10.398438 14.398438 C 9.878906 14.398438 9.441406 14.078125 9.28125 13.601562 Z M 8.320312 13.601562 C 8.160156 14.078125 7.71875 14.398438 7.199219 14.398438 C 6.679688 14.398438 6.238281 14.078125 6.078125 13.601562 Z M 5.121094 13.601562 C 4.960938 14.078125 4.519531 14.398438 4 14.398438 C 3.480469 14.398438 3.039062 14.078125 2.878906 13.601562 Z M 10.398438 23.199219 L 10.398438 19.199219 L 13.601562 19.199219 L 13.601562 23.199219 Z M 21.601562 23.199219 L 14.398438 23.199219 L 14.398438 18.800781 C 14.398438 18.558594 14.238281 18.398438 14 18.398438 L 10 18.398438 C 9.761719 18.398438 9.601562 18.558594 9.601562 18.800781 L 9.601562 23.199219 L 2.398438 23.199219 L 2.398438 17.601562 L 21.601562 17.601562 Z M 22 16.800781 L 1 16.800781 L 2.140625 13.949219 C 2.433594 14.6875 3.144531 15.199219 4 15.199219 C 4.640625 15.199219 5.238281 14.878906 5.601562 14.398438 C 5.960938 14.878906 6.558594 15.199219 7.199219 15.199219 C 7.839844 15.199219 8.441406 14.878906 8.800781 14.398438 C 9.160156 14.878906 9.761719 15.199219 10.398438 15.199219 C 11.039062 15.199219 11.640625 14.878906 12 14.398438 C 12.359375 14.878906 12.960938 15.199219 13.601562 15.199219 C 14.238281 15.199219 14.839844 14.878906 15.199219 14.398438 C 15.558594 14.878906 16.160156 15.199219 16.800781 15.199219 C 17.441406 15.199219 18.039062 14.878906 18.398438 14.398438 C 18.761719 14.878906 19.359375 15.199219 20 15.199219 C 20.855469 15.199219 21.566406 14.6875 21.859375 13.949219 L 23 16.800781 Z M 22 16.800781"/>
</svg>

<svg xmlns="http://www.w3.org/2000/svg" width="32" height="32" viewBox="0 0 24 24">
    <path d="M4 21.602h4c.238 0 .398-.16.398-.403v-2.398c0-.242-.16-.403-.398-.403H4c-.238 0-.398.16-.398.403v2.398c0 .242.16.403.398.403zm.398-2.403h3.204v1.602H4.398zm0 0M16 21.602h4c.238 0 .398-.16.398-.403v-2.398c0-.242-.16-.403-.398-.403h-4c-.238 0-.398.16-.398.403v2.398c0 .242.16.403.398.403zm.398-2.403h3.204v1.602h-3.204zm0 0M4 12h4c.238 0 .398-.16.398-.398V9.199c0-.238-.16-.398-.398-.398H4c-.238 0-.398.16-.398.398v2.403c0 .238.16.398.398.398zm.398-2.398h3.204v1.597H4.398zm0 0M10 12h4c.238 0 .398-.16.398-.398V9.199c0-.238-.16-.398-.398-.398h-4c-.238 0-.398.16-.398.398v2.403c0 .238.16.398.398.398zm.398-2.398h3.204v1.597h-3.204zm0 0M16 12h4c.238 0 .398-.16.398-.398V9.199c0-.238-.16-.398-.398-.398h-4c-.238 0-.398.16-.398.398v2.403c0 .238.16.398.398.398zm.398-2.398h3.204v1.597h-3.204zm0 0"/>
    <path d="M22.398 13.14V8h1.204c.117 0 .238-.078.32-.2.078-.081.078-.241.039-.359l-1.602-4C22.32 3.281 22.16 3.2 22 3.2h-.398V1.641C21.602.76 20.84 0 19.96 0H4.039C3.16 0 2.4.762 2.4 1.64V3.2H2c-.16 0-.32.081-.36.28l-1.6 4c-.04.122-.04.282.038.36.082.082.203.16.32.16h1.204v5.18L.039 17.078C0 17.2 0 17.36.08 17.441c.081.079.202.16.32.16h1.203v6c0 .239.16.399.398.399h20c.238 0 .398-.16.398-.398v-6h1.204c.117 0 .238-.082.32-.204.078-.078.078-.238.039-.359zM18.801.8v.802h-1.602V.8zm-4 0v.802h-1.602V.8zm-4 0v.802H9.199V.8zm-4 0v.802H5.199V.8zm-3.602.84c0-.44.403-.84.84-.84h.36V2c0 .238.16.398.402.398h2.398c.242 0 .403-.16.403-.398V.8h.796V2c0 .238.16.398.403.398h2.398c.242 0 .403-.16.403-.398V.8h.796V2c0 .238.16.398.403.398h2.398c.242 0 .403-.16.403-.398V.8h.796V2c0 .238.16.398.403.398h2.398c.242 0 .403-.16.403-.398V.8h.359c.437 0 .84.4.84.84V3.2H3.199zM21.121 4c-.16.48-.601.8-1.121.8s-.96-.32-1.121-.8zm-3.2 0c-.16.48-.6.8-1.12.8-.52 0-.961-.32-1.121-.8zM14.72 4c-.16.48-.598.8-1.117.8-.524 0-.961-.32-1.122-.8zm-3.2 0c-.16.48-.597.8-1.12.8-.52 0-.958-.32-1.118-.8zM8.32 4c-.16.48-.601.8-1.12.8-.52 0-.962-.32-1.122-.8zM5.121 4c-.16.48-.601.8-1.121.8s-.96-.32-1.121-.8zm-2.98.348A1.977 1.977 0 0 0 4 5.602c.64 0 1.238-.32 1.602-.801.359.48.957.8 1.597.8s1.242-.32 1.602-.8c.36.48.96.8 1.597.8.641 0 1.243-.32 1.602-.8.36.48.96.8 1.602.8.636 0 1.238-.32 1.597-.8.36.48.961.8 1.602.8.64 0 1.238-.32 1.597-.8.364.48.961.8 1.602.8.855 0 1.566-.511 1.86-1.253L23 7.199H1zM21.6 8v4.8H2.399V8zm-.48 5.602c-.16.476-.601.796-1.121.796s-.96-.32-1.121-.796zm-3.2 0c-.16.476-.6.796-1.12.796-.52 0-.961-.32-1.121-.796zm-3.202 0c-.16.476-.598.796-1.117.796-.524 0-.961-.32-1.122-.796zm-3.2 0c-.16.476-.597.796-1.12.796-.52 0-.958-.32-1.118-.796zm-3.199 0c-.16.476-.601.796-1.12.796-.52 0-.962-.32-1.122-.796zm-3.199 0c-.16.476-.601.796-1.121.796s-.96-.32-1.121-.796zm5.277 9.597v-4h3.204v4zm11.204 0h-7.204v-4.398c0-.242-.16-.403-.398-.403h-4c-.238 0-.398.16-.398.403v4.398H2.398v-5.597h19.204zM22 16.801H1l1.14-2.852A1.98 1.98 0 0 0 4 15.2c.64 0 1.238-.32 1.602-.8.359.48.957.8 1.597.8s1.242-.32 1.602-.8c.36.48.96.8 1.597.8.641 0 1.243-.32 1.602-.8.36.48.96.8 1.602.8.636 0 1.238-.32 1.597-.8.36.48.961.8 1.602.8.64 0 1.238-.32 1.597-.8.364.48.961.8 1.602.8a1.98 1.98 0 0 0 1.86-1.25L23 16.801zm0 0"/>
</svg>
